X: 1
T: Miss Jane of Violet Bank
C: Max Houliston
R: polka, reel
Z: 2014 John Chambers <jc:trillian.mit.edu>
S: PDF image of set for J.B.Milne from George Meikle 2012
M: C|
L: 1/8
K: D
A |\
"D"DA^GA BAGA | FA^GA BAGA | "A7"FAEA FAEA | FA^GA BAFE |
"D"DA^GA BAGA | FA^GA BAGA | "A7"FAEA FAEA | FAFE "D"D3 :|
|: A |\
"D"Adcd "A7"edcd | "D7"Adcd "G"Bdcd | "D"Adcd "Bm"edcd | "Em"ABAF "A7"E3A |
"D"Adcd "A7"edcd | "D7"Adcd "G"BcdB | "D"Adcd "Em"BcdB | "A7"cABc "D"d3 :|
